X:1
T: My Lodging's on the Cold Ground
C:
R:Jig
Q:180
K:A
M:6/8
L:1/16
|:E2|A2B2A2 A2c2e2|d2f2a2 a2g2f2|e2d2c2 B2A2B2|ce3c2 B4cB|
A2B2A2 A2c2e2|d2f2a2 a2g2f2|e2a2c2 B2A2B2|A6A4ed|
c2e2a2 a4e2|f2d2f2 a2g2f2|e2d2c2 B2A2B2|ce3c2 B2c2B2|
A2B2A2 A2c2e2|d2f2a2 a2g2f2|e2a2c2 B2A2B2|A6A4:|
